frontend/src/assets/icon-importprotokoll.svg

<?xml version="1.0" encoding="UTF-8" standalone="no"?>
<svg
   xmlns:dc="http://purl.org/dc/elements/1.1/"
   xmlns:cc="http://creativecommons.org/ns#"
   xmlns:rdf="http://www.w3.org/1999/02/22-rdf-syntax-ns#"
   xmlns:svg="http://www.w3.org/2000/svg"
   xmlns="http://www.w3.org/2000/svg"
   xmlns:sodipodi="http://sodipodi.sourceforge.net/DTD/sodipodi-0.dtd"
   xmlns:inkscape="http://www.inkscape.org/namespaces/inkscape"
   height="24px"
   viewBox="0 0 24 24"
   width="24px"
   fill="#000000"
   version="1.1"
   id="svg843"
   sodipodi:docname="map-icon-importprotkoll.svg"
   inkscape:version="0.92.3 (2405546, 2018-03-11)">
  <metadata
     id="metadata849">
    <rdf:RDF>
      <cc:Work
         rdf:about="">
        <dc:format>image/svg+xml</dc:format>
        <dc:type
           rdf:resource="http://purl.org/dc/dcmitype/StillImage" />
        <dc:title></dc:title>
      </cc:Work>
    </rdf:RDF>
  </metadata>
  <defs
     id="defs847" />
  <sodipodi:namedview
     pagecolor="#ffffff"
     bordercolor="#666666"
     borderopacity="1"
     objecttolerance="10"
     gridtolerance="10"
     guidetolerance="10"
     inkscape:pageopacity="0"
     inkscape:pageshadow="2"
     inkscape:window-width="3840"
     inkscape:window-height="2004"
     id="namedview845"
     showgrid="false"
     inkscape:zoom="69.875"
     inkscape:cx="11.220036"
     inkscape:cy="12"
     inkscape:window-x="-16"
     inkscape:window-y="-16"
     inkscape:window-maximized="1"
     inkscape:current-layer="svg843" />
  <path
     d="M0 0h24v24H0z"
     fill="none"
     id="path839" />
  <path
     d="M 12 1 C 10.7 1 9.5996875 1.84 9.1796875 3 L 5 3 C 3.9 3 3 3.9 3 5 L 3 19 C 3 20.1 3.9 21 5 21 L 19 21 C 20.1 21 21 20.1 21 19 L 21 5 C 21 3.9 20.1 3 19 3 L 14.820312 3 C 14.400313 1.84 13.3 1 12 1 z M 12 3 C 12.55 3 13 3.45 13 4 C 13 4.55 12.55 5 12 5 C 11.45 5 11 4.55 11 4 C 11 3.45 11.45 3 12 3 z M 11.369141 7.1425781 L 12.630859 7.1425781 L 12.630859 13.238281 L 14.263672 11.611328 L 15.152344 12.5 L 12 15.652344 L 8.8476562 12.5 L 9.7363281 11.611328 L 11.369141 13.238281 L 11.369141 7.1425781 z M 6.328125 12.816406 L 7.5878906 12.816406 L 7.5878906 17.228516 L 16.412109 17.228516 L 16.412109 12.816406 L 17.671875 12.816406 L 17.671875 17.228516 C 17.671875 17.921837 17.10543 18.488281 16.412109 18.488281 L 7.5878906 18.488281 C 6.8945692 18.488281 6.328125 17.921837 6.328125 17.228516 L 6.328125 12.816406 z "
     id="path841" />
</svg>

<svg xmlns="http://www.w3.org/2000/svg" width="24" height="24" viewBox="0 0 24 24"><path fill="none" d="M0 0h24v24H0z"/><path d="M12 1c-1.3 0-2.4.84-2.82 2H5c-1.1 0-2 .9-2 2v14c0 1.1.9 2 2 2h14c1.1 0 2-.9 2-2V5c0-1.1-.9-2-2-2h-4.18C14.4 1.84 13.3 1 12 1m0 2c.55 0 1 .45 1 1s-.45 1-1 1-1-.45-1-1 .45-1 1-1m-.63 4.143h1.26v6.095l1.634-1.627.888.889L12 15.652 8.848 12.5l.888-.889 1.633 1.627zm-5.042 5.673h1.26v4.413h8.824v-4.413h1.26v4.413c0 .693-.567 1.26-1.26 1.26H7.588c-.693 0-1.26-.567-1.26-1.26z"/></svg>
